X:40
T:Poor mens Labours never done
A:Wyresdale, Lancashire
B:E and J Winder, 1835-41
L:1/8
M:C|
O:England
Z:Richard Robinson 
%%TUNEURL: http://www.leeds.ac.uk/music/Info/RRTuneBk/gettune/00000e89.html
%%ID:00000e89
K:C
BB AA GF GD | BB AA GF G2 :: \
Bd dd  e2 dc  | d2 G2  Bd dd | (d2c2) d4  |
e2(dc) d2(cB) | c2(BA) F2 D2 | B3c    A3d | G2F2 G4 :|
